src/4-icons/radio.svg

<svg width="260" height="260" viewBox="0 0 260 260" fill="none" xmlns="http://www.w3.org/2000/svg"><g opacity=".9" fill="#000"><path d="M131 161c16.568 0 30-13.432 30-30 0-16.568-13.432-30-30-30-16.568 0-30 13.432-30 30 0 16.568 13.432 30 30 30Z"/><path fill-rule="evenodd" clip-rule="evenodd" d="M70 130.5c0 33.413 27.087 60.5 60.5 60.5s60.5-27.087 60.5-60.5S163.913 70 130.5 70 70 97.087 70 130.5Zm14 0c0 25.681 20.819 46.5 46.5 46.5s46.5-20.819 46.5-46.5S156.181 84 130.5 84 84 104.819 84 130.5Z"/></g></svg>

<svg width="260" height="260" viewBox="0 0 260 260" fill="none" xmlns="http://www.w3.org/2000/svg">
<g opacity="0.9">
<path d="M131 161C147.568 161 161 147.568 161 131C161 114.432 147.568 101 131 101C114.432 101 101 114.432 101 131C101 147.568 114.432 161 131 161Z" fill="black"/>
<path fill-rule="evenodd" clip-rule="evenodd" d="M70 130.5C70 163.913 97.0868 191 130.5 191C163.913 191 191 163.913 191 130.5C191 97.0868 163.913 70 130.5 70C97.0868 70 70 97.0868 70 130.5ZM84 130.5C84 156.181 104.819 177 130.5 177C156.181 177 177 156.181 177 130.5C177 104.819 156.181 84 130.5 84C104.819 84 84 104.819 84 130.5Z" fill="black"/>
</g>
</svg>
